Bloom-Colors/scalable/actions/view-mirror-symbolic.svg

<svg width="16" height="16" version="1.1" xmlns="http://www.w3.org/2000/svg">
<path d="m1.8613 0c-0.7804 0-1.8613 0.69182-1.8613 1.5762v12.811c0 0.884 1.0809 1.613 1.8613 1.613l3.8907-2.947c0.6083-0.456 1.248-0.729 1.248-1.614v-6.9136c0-0.8845-0.812-1.2224-1.248-1.6133zm0.1387 1.3535 3.8516 2.9063s0.1484 0.0682 0.1484 0.2656v6.9136c0 0.26-0.1016 0.26-0.1016 0.26l-3.8984 2.942z" fill="#666"/>
<path d="m13.139 0c0.78 0 1.861 0.69182 1.861 1.5762v12.811c0 0.884-1.081 1.613-1.861 1.613l-3.891-2.947c-0.6083-0.456-1.248-0.729-1.248-1.614v-6.9136c0-0.8845 0.812-1.2224 1.248-1.6133zm-0.139 1.3535-3.8516 2.9063s-0.1484 0.0682-0.1484 0.2656v6.9136c0 0.26 0.1016 0.26 0.1016 0.26l3.8984 2.942z" fill="#666" opacity=".3"/>
</svg>

<svg xmlns="http://www.w3.org/2000/svg" width="16" height="16" version="1.1">
 <path style="fill:#444444" d="M 1.8613,0 C 1.0809,0 0,0.69182 0,1.5762 V 14.387 C 0,15.271 1.0809,16 1.8613,16 L 5.752,13.053 C 6.3603,12.597 7,12.324 7,11.439 V 4.5254 C 7,3.6409 6.188,3.303 5.752,2.9121 Z M 2,1.3535 5.8516,4.2598 C 5.8516,4.2598 6,4.328 6,4.5254 V 11.439 C 6,11.699 5.8984,11.699 5.8984,11.699 L 2,14.641 Z"/>
 <path style="opacity:0.3;fill:#444444" d="M 13.139,0 C 13.919,0 15,0.69182 15,1.5762 V 14.387 C 15,15.271 13.919,16 13.139,16 L 9.248,13.053 C 8.6397,12.597 8,12.324 8,11.439 V 4.5254 C 8,3.6409 8.812,3.303 9.248,2.9121 Z M 13,1.3535 9.1484,4.2598 C 9.1484,4.2598 9,4.328 9,4.5254 V 11.439 C 9,11.699 9.1016,11.699 9.1016,11.699 L 13,14.641 Z"/>
</svg>
